src/pos-icons/flash-circle.svg

<svg height="24" viewBox="0 0 24 24" width="24" xmlns="http://www.w3.org/2000/svg"><path d="m11.5 20 4.86-9.73h-3.36v-6.27l-5 9.73h3.5zm.5-18c2.75 0 5.1 1 7.05 2.95s2.95 4.3 2.95 7.05-1 5.1-2.95 7.05-4.3 2.95-7.05 2.95-5.1-1-7.05-2.95-2.95-4.3-2.95-7.05 1-5.1 2.95-7.05 4.3-2.95 7.05-2.95z"/></svg>

<?xml version="1.0" encoding="UTF-8"?><!DOCTYPE svg PUBLIC "-//W3C//DTD SVG 1.1//EN" "http://www.w3.org/Graphics/SVG/1.1/DTD/svg11.dtd"><svg xmlns="http://www.w3.org/2000/svg" xmlns:xlink="http://www.w3.org/1999/xlink" version="1.1" id="mdi-flash-circle" width="24" height="24" viewBox="0 0 24 24"><path d="M11.5,20L16.36,10.27H13V4L8,13.73H11.5V20M12,2C14.75,2 17.1,3 19.05,4.95C21,6.9 22,9.25 22,12C22,14.75 21,17.1 19.05,19.05C17.1,21 14.75,22 12,22C9.25,22 6.9,21 4.95,19.05C3,17.1 2,14.75 2,12C2,9.25 3,6.9 4.95,4.95C6.9,3 9.25,2 12,2Z" /></svg>
